X: 1
T: Lucky Scaup
C: Jimmy Shand
R: reel
N: Also played with the 2nd part repeated.
N: Chords added by John Chambers <jc:trillian.mit.edu>
S: http://nigelgatherer.com/tunes/abc/abc7/lucks.abc	 20110323 013453 UT
S: printed MS from Mike Briggs
S: handwritten page from Barbara McOwen in the Concord Slow Scottish Session collection (chords, trills)
M: C|
L: 1/8
K: D
FE | "D"D2DF "A7"E2EG | "D"    F2FA  "G"G2GB | "D"A2f2 "Em"Tgfed | "A7"f2e2     e2f2 |
y4 | "D"D2DF "A7"E2EG | "D(Bm)"F2FA  "G"G2GB | "D"A2a2 "A7" gfed | "D" f2d2     d2  :|
fg | "D"a2d2  "G"b2d2 | "D"    a2gf "A7"g2fg | "D"a2d2 "Bm" bagf | "Em"g2e2 "A7"e2fg |
y4 | "D"a2d2  "G"b2d2 | "D"    a2gf "A7"g2fe | "D"A2a2 "A7" gfed | "D"Tf2d2      d2  |]
fg | "D"a2d2  "G"b2d2 | "D"    a2gf "A7"g2fg | "D"a2d2 "Bm" bagf | "Em"g2e2 "A7"e2f2 |
y4 | "D"D2DF "A7"E2EG | "D(Bm)"F2FA  "G"G2GB | "D"A2a2 "A7" gfed | "D" f2d2     d2  |]

%%sep 1 1 500

